!!!COM:	Tinctoris, Johannes
!!!CDT:	~1435///-1511//
!!!OPR:	Missa L'homme arm&eacute;
!!!ONM:	1
!!!OTL:	Kyrie
!!!AGN:	Mass; Kyrie
!!!SCT:	Tin1001a
!!!SCA:	Tin1001a
!!!voices:	4
!!!voices-OPR:	4
**kern	**kern	**kern	**kern
*staff4	*staff3	*staff2	*staff1
*Ivox	*Ivox	*Ivox	*Ivox
*I"Bassus	*I"Tenor	*I"Altus	*I"Discantus
*I'B	*I'T	*I'A	*I'D
*>[A,B,C]	*>[A,B,C]	*>[A,B,C]	*>[A,B,C]
*>A	*>A	*>A	*>A
*clefF4	*clefGv2	*clefGv2	*clefG2
*k[b-]	*k[b-]	*k[b-]	*k[b-]
*M3/1	*M3/1	*M3/1	*M3/1
*met(O)	*met(O)	*met(C.)	*met(O)
*MM252	*MM252	*MM252	*MM252
!!section: Kyrie I
!!!OMD: Kyrie I
!!incipit: 3
=1-	=1-	=1-	=1-
!!primary-mensuration: met(O)
*	*	*rscale:1/2	*
!	!	!LO:TX:Z=6:X=-20:t=Crescit in duplum	!
0GG	1G	0.r	0d
.	2D/	.	.
.	2.G/	.	.
1GG	.	.	1g
.	4F/	.	.
.	4E/	.	.
.	4D/	.	.
=2	=2	=2-	=2
0C	1.E	0G	2.g/
.	.	.	4f/
.	.	.	2e/
.	2C/	.	2e/
1BB-	1D	1G	2d/
.	.	.	2g/
=3	=3	=3	=3
0.AA	2E/	0c	2.a/
.	2F/	.	.
.	.	.	4b-\
.	2.E/	.	2cc\
.	.	.	2.cc\
.	4.A/	.	.
.	.	1c	.
.	8G/L	.	.
.	8F#i/	.	4b-\
.	8E/J	.	.
.	2F#i/	.	4a/
.	.	.	8g/L
.	.	.	8a/J
=4	=4	=4-	=4
1GG	1G	1B-	2.b-\
.	.	.	8a/L
.	.	.	8g/J
1D	1r	0A	2.f/
.	.	.	4.a/
1D	1r	.	.
.	.	.	8g/L
.	.	.	8f#i/
.	.	.	8e/J
.	.	.	2f#i/
=5	=5	=5	=5
1GG	1r	0.G	1.g
2r	1d	.	.
2.GG/	.	.	2.b-\
.	1d	.	.
4AA/	.	.	4a/
2BB-/	.	.	4g/
.	.	.	4f/
=6	=6	=6-	=6
2C/	2G/	0.r	2.e/
2AA/	2.A/	.	.
.	.	.	8d/L
.	.	.	8e/J
1D	.	.	2f/
.	4G/	.	.
.	2F/	.	1d
1AA	1E	.	.
.	.	.	2c#i/
=7	=7	=7	=7
2r	1D	0.r	0d
2.A\	.	.	.
.	2r	.	.
4G\	.	.	.
2F\	2.d\	.	.
1E	.	.	2r
.	8c#i\L	.	.
.	8Bni\J	.	.
.	2c#i\	.	2e/
=8	=8	=8-	=8
2D\	2d\	1r	2.f/
2A\	2D/	.	.
.	.	.	4e/
2B-\	2G/	1d	2g/
2.G\	2.B-\	.	2.d/
.	.	1d	.
4F\	4A/	.	4e/
2D\	2F/	.	2f/
=9	=9	=9	=9
2E\	2G/	0.G	2.e/
2.C/	2.E/	.	.
.	.	.	4d/
.	.	.	1g
4BB-/	8D/L	.	.
.	8C/J	.	.
2GG/	2D/	.	.
2C/	2E/	.	1g
2E\	2C/	.	.
=10	=10	=10-	=10
2.D\	2.F/	1r	1.a
4E\	4G/	.	.
2F\	2A/	1d	.
2.G\	2.B-\	.	2g/
.	.	1d	2r
8F\L	8A/L	.	.
8E\J	8G/J	.	.
2F\	2A/	.	2a/
=11	=11	=11	=11
2r	1G	1d	2.b-\
2G\	.	.	.
.	.	.	8a/L
.	.	.	8b-/J
4.C/	1r	0c	2.cc\
8D\	.	.	.
4E\	.	.	.
2F\	.	.	2a/
.	1r	.	.
8E\L	.	.	8g/L
8D\J	.	.	8f/J
2C/	.	.	2e/
=12	=12	=12-	=12
1G	2r	1B-	2d/
.	2G/	.	2g/
1r	4D/	0A	4f/
.	4.F/	.	4.a/
.	8G/	.	8b-\
.	4.A/	.	4.cc\
1r	.	.	.
.	8B-\	.	8b-/L
.	4.c\	.	8a/
.	.	.	8g/J
.	.	.	4.f#i/
.	8B-/L	.	.
.	8A/	.	.
.	8G/J	.	8e/
=13	=13	=13	=13
2GG/	2B-\	0.G	1g
2C/	2.G/	.	.
2BB-/	.	.	2d/
.	4.B-\	.	.
4GG/	.	.	2.g/
.	8A/	.	.
2C/	4G/	.	.
.	4E/	.	.
4D\	4F/	.	4f/
4E\	[2G/	.	4e/
4F\	.	.	8d/L
.	.	.	8c/J
=14	=14	=14-	=14
1G	4G/]	0.r	2.B-/
.	4A/	.	.
.	2B-\	.	.
.	.	.	4c/
2F\	4.A/	.	2d/
.	8G/	.	.
2E\	2.G/	.	1c
1D	.	.	.
.	8F/L	.	.
.	8E/J	.	.
.	2F/	.	2Bni/
=15	=15	=15	=15
*	*	*rscale:1	*
*	*	*M2/1	*
*	*	*met(2/1)	*
2C/	1G	1g	2c/
4GG/	.	.	2.d/
2BB-/	.	.	.
.	1r	2g\	.
4C/	.	.	8c/L
.	.	.	8B-/J
2.D\	.	1f	2A/
.	1r	.	2r
8C/L	.	.	.
8BB-/J	.	.	.
2AA/	.	2f\	2A/
=16	=16	=16	=16
0GG	2D/	1g	2B-/
.	2.G/	.	4G/
.	.	.	2B-/
.	.	2g\	.
.	4A/	.	4c/
.	2.B-\	1.d	2.d/
2r	.	.	.
.	8A/L	.	8c/L
.	8G/J	.	8B-/J
2D\	2F/	.	2A/
=17	=17	=17	=17
2.GG/	2B-\	1g	1G
.	4G/	.	.
4.G\	2B-\	.	.
.	.	2g\	1r
8F\	.	.	.
4E\	4c\	.	.
1.D	2.d\	1f	.
.	.	.	1r
.	8c\L	.	.
.	8B-\J	.	.
.	2A/	2f\	.
=18	=18	=18	=18
2E\	2G/	1.g	2g/
2C/	2c\	.	2e/
2.G\	2.B-\	.	2.d/
.	.	1d	.
2G\	4.B-\	.	4.g/
.	8A/	.	8f/
4F\	2d\	.	4d/
2E\	.	2g\	2e/
.	4c\	.	.
=19	=19	=19	=19
2D\	2d\	1a	4.f/
.	.	.	8e/
2AA/	1c	.	4c/
.	.	.	4d/
2C/	.	2g\	2e/
2D\	1A	2f\	2.d/
1AA	.	1e	.
.	.	.	8c#i/L
.	.	.	8Bni/J
.	2A/	.	2c#i/
=20	=20	=20	=20
2r	1F	0d	1d
1BB-	.	.	.
.	2D/	.	2.B-/
2GG/	2d\	.	.
.	.	.	2G/
2C/	2e-\	1r	.
.	.	.	4.c/
2E\	[2c\	.	.
.	.	.	8B-/
.	.	.	4G/
=21	=21	=21	=21
1D	4c\]	1.r	4A/
.	8Bni/L	.	8G/L
.	8A/J	.	8A/J
.	2Bni\	.	4.F/
.	.	.	8E/
1C	1c	.	2G/
.	.	1G	2r
2GG/	2B-i\	.	1g
[2C/	2G/	2G/	.
=22	=22	=22	=22
4C/]	2E/	1c	2g/
4BB-/	.	.	.
4AA/	2.F/	.	2.cc\
4GG/	.	.	.
2AA/	.	2c\	.
.	4E/	.	4a/
2GG/	2G/	2B-\	4b-\
.	.	.	2g/
1D	2r	1A	.
.	.	.	4f#i/
.	2A/	.	4f#i/
.	.	.	4e/
=23	=23	=23	=23
2r	1.B-	1.G	2.g/
1GG	.	.	.
.	.	.	4f/
.	.	.	2.d/
2.GG/	2.G/	1.r	.
.	.	.	4c/
.	.	.	4B-/
4AA/	4F/	.	4A/
2BB-/	2D/	.	[2d/
=24	=24	=24	=24
1AA	1E	1.r	4d/]
.	.	.	8c#i/L
.	.	.	8Bni/J
.	.	.	2c#i/
2A\	2D/	.	2d/
2.G\	4.d\	2r	4r
.	.	.	2g/
.	8c\	.	.
.	4B-\	2d\	.
4F\	8A/L	.	2a/
.	8G/J	.	.
2D\	4A/	2d\	.
.	[4d\	.	4f/
=25	=25	=25	=25
1E	4d\]	1.G	4.g/
.	4c\	.	.
.	.	.	8f/
.	4c\	.	4e/
.	4B-\	.	4d/
2r	1d	.	2g/
2D\	.	2r	2a/
[1G	2r	2d\	2.b-\
.	[2B-\	2d\	.
.	.	.	8a/L
.	.	.	8g/J
=26	=26	=26	=26
2G\]	2B-\]	2d\	2b-\
2A\	1A	1c	4.cc\
.	.	.	8b-\
2F\	.	.	4a/
.	.	.	4g/
2G\	2.d\	2B-\	2.g/
1D	.	1A	.
.	8c\L	.	8f#i/L
.	8B-\J	.	8g/J
.	2A/	.	4f#i/
.	.	.	4e/
=27	=27	=27	=27
0.GGl	2.B-\	0.Gl	0.gl
.	4c\	.	.
.	0dl	.	.
*	*	*rscale:1	*
!!LO:LB:i:g=z
=28||	=28||	=28||	=28||
*>B	*>B	*>B	*>B
*clefF4	*clefGv2	*clefGv2	*clefG2
*k[b-]	*k[b-]	*k[b-]	*k[b-]
*M2/1	*M2/1	*M2/1	*M2/1
*met(C|)	*met(C|)	*met(C|)	*met(C|)
*MM315	*MM315	*MM315	*MM315
!!section: Christe
!!!OMD: Christe
0GG	0G	0r	0r
=29	=29	=29	=29
2GG/	1.G	0r	0r
4AA/	.	.	.
4BB-/	.	.	.
2.C/	.	.	.
.	4A/	.	.
4D\	4B-\	.	.
=30	=30	=30	=30
2E\	2c\	0r	0r
2F\	2.d\	.	.
2.G\	.	.	.
.	4c\	.	.
.	4B-\	.	.
4F\	4A/	.	.
=31	=31	=31	=31
4E\	2G/	0r	0r
4D\	.	.	.
2C/	1c	.	.
1D	.	.	.
.	2B-\	.	.
=32	=32	=32	=32
2C/	1c	0r	0r
2AA/	.	.	.
2GG/	2B-\	.	.
[2D\	[2A/	.	.
=33	=33	=33	=33
4D\]	4A/]	0r	0r
4E\	4G/	.	.
2.F\	4F/	.	.
.	4E/	.	.
.	4D/	.	.
4E\	4E/	.	.
[2D\	4F/	.	.
.	4G/	.	.
=34	=34	=34	=34
4D\]	2A/	0r	0r
4C/	.	.	.
2BB-/	1G	.	.
1AA	.	.	.
.	2F#i/	.	.
=35	=35	=35	=35
0GG	[0G	0r	0r
=36	=36	=36	=36
0r	0G]	1r	1d
.	.	1d	1d
=37	=37	=37	=37
0r	0r	1d	1G
.	.	1G	2r
.	.	.	[2d/
=38	=38	=38	=38
0r	0r	2r	4d/]
.	.	.	4e/
.	.	2.d\	2.f/
.	.	4e\	4e/
.	.	2f\	2d/
=39	=39	=39	=39
0r	0r	2.g\	2e/
.	.	.	1c
.	.	4f\	.
.	.	2e\	.
.	.	[2d\	2Bni/
=40	=40	=40	=40
0r	0r	4d\]	2c/
.	.	4c\	.
.	.	1c	2e/
.	.	.	1d
.	.	2B-\	.
=41	=41	=41	=41
0r	0r	1c	2c/
.	.	.	2A/
.	.	1B-	2G/
.	.	.	[2g/
=42	=42	=42	=42
0r	0r	0G	4g/]
.	.	.	4a/
.	.	.	2.b-\
.	.	.	4a/
.	.	.	2b-\
=43	=43	=43	=43
0r	0r	0A	4cc\
.	.	.	4b-\
.	.	.	4a/
.	.	.	4g/
.	.	.	2.f#i/
.	.	.	4e/
=44	=44	=44	=44
1r	0r	1G	0g
[1GG	.	1r	.
=45	=45	=45	=45
2GG/]	0r	0g	0r
1C	.	.	.
2BB-/	.	.	.
=46	=46	=46	=46
2C/	0r	1g	0r
2E-i\	.	.	.
2.D\	.	2.f\	.
4Eni\	.	4g\	.
=47	=47	=47	=47
2F\	0r	2a\	0r
2G\	.	1g	.
2.A\	.	.	.
.	.	2f\	.
4G\	.	.	.
=48	=48	=48	=48
2E\	0r	2.g\	0r
2.G\	.	.	.
.	.	4f\	.
.	.	4e\	.
4F\	.	4d\	.
2D\	.	[2f\	.
=49	=49	=49	=49
2F\	0r	4f\]	0r
.	.	4e\	.
2G\	.	2.d\	.
1E	.	.	.
.	.	4c#i\	.
.	.	4c#i\	.
.	.	4Bni\	.
=50	=50	=50	=50
0D	0r	0d	0r
=51	=51	=51	=51
0r	2.G/	0r	0g
.	4A/	.	.
.	2B-\	.	.
.	[2c\	.	.
=52	=52	=52	=52
0r	4c\]	0r	1g
.	4d\	.	.
.	2e-i\	.	.
.	1d	.	2.f/
.	.	.	4g/
=53	=53	=53	=53
0r	2c\	0r	2a/
.	2B-\	.	1g
.	1A	.	.
.	.	.	2f/
=54	=54	=54	=54
0r	2G/	0r	2.g/
.	2.c\	.	.
.	.	.	4f/
.	.	.	4e/
.	4B-\	.	4d/
.	4A/	.	[2f/
.	4G/	.	.
=55	=55	=55	=55
1r	2A/	0r	4f/]
.	.	.	4e/
.	2F/	.	2.d/
1G	1E	.	.
.	.	.	4c#i/
.	.	.	4c#i/
.	.	.	4Bni/
=56	=56	=56	=56
0A	2D/	0r	1d
.	2.F/	.	.
.	.	.	1r
.	4G/	.	.
.	2A/	.	.
=57	=57	=57	=57
1G	2B-\	0r	0r
.	4A/	.	.
.	4G/	.	.
1F	2A/	.	.
.	[2d\	.	.
=58	=58	=58	=58
0E	2d\]	0r	0r
.	2c#i\	.	.
.	2c#i\	.	.
.	4Bni\	.	.
.	4c#i\	.	.
=59	=59	=59	=59
1D	0d	0r	0r
1D	.	.	.
=60	=60	=60	=60
2D\	0r	1d	0r
4E\	.	.	.
4F\	.	.	.
[1G	.	2d\	.
.	.	4e\	.
.	.	4f\	.
=61	=61	=61	=61
2G\]	0r	2g\	0r
2F\	.	2a\	.
2G\	.	2.d\	.
[2B-\	.	.	.
.	.	4e\	.
=62	=62	=62	=62
4B-\]	0r	2f\	0r
4A\	.	.	.
2G\	.	2.g\	.
1A	.	.	.
.	.	4f#i\	.
.	.	4f#i\	.
.	.	4e\	.
=63	=63	=63	=63
1G	0r	1g	1r
1r	.	2G/	1g
.	.	4A/	.
.	.	4B-\	.
=64	=64	=64	=64
0r	0r	1.c	2g/
.	.	.	4a/
.	.	.	4b-\
.	.	.	1cc
.	.	4d\	.
.	.	4e\	.
=65	=65	=65	=65
0r	0r	2.f\	4cc\
.	.	.	4b-\
.	.	.	4a/
.	.	4e\	4g/
.	.	2d\	1b-
.	.	[2g\	.
=66	=66	=66	=66
0r	1d	2g\]	0a
.	.	4f#i\	.
.	.	4e\	.
.	1d	4f#i\	.
.	.	4g\	.
.	.	4a\	.
.	.	4f#i\	.
=67	=67	=67	=67
0r	1G	1g	1g
.	2A/	1r	2r
.	[2B-\	.	[2d/
=68	=68	=68	=68
0r	4B-\]	0r	4d/]
.	4A/	.	4c/
.	2.c\	.	2.e-i/
.	4B-\	.	4d/
.	4A/	.	4c/
.	4G/	.	4B-/
=69	=69	=69	=69
0r	2F/	0r	2A/
.	2.G/	.	2B-/
.	.	.	1A
.	4F#i/	.	.
.	4F#i/	.	.
.	4E/	.	.
=70	=70	=70	=70
1r	2.G/	2d\	2r
.	.	2d\	2.G/
.	4A/	.	.
2.GG/	4B-\	1g	.
.	4c\	.	4A/
.	2d\	.	4B-/
4AA/	.	.	4c/
=71	=71	=71	=71
2.BB-/	2r	1f	2.d/
.	2.D/	.	.
4C/	.	.	4e/
2.D\	.	2r	4f/
.	4E/	.	4g/
.	4F/	[2f\	[2a/
4E\	4G/	.	.
=72	=72	=72	=72
2.F\	2.A/	4f\]	4a/]
.	.	4g\	4g/
.	.	2a\	1cc
4G\	4G/	.	.
2A\	2c\	2f\	.
[2G\	[2d\	[2g\	[2b-\
=73	=73	=73	=73
1G]	4d\]	4g\]	4b-\]
.	4c\	4f\	4a/
.	2B-\	2.d\	2.g/
1D	1A	.	.
.	.	4c\	4f#i/
.	.	2A/	4f#i/
.	.	.	4e/
=74	=74	=74	=74
[0GGl	[0Gl	1.B-	[0gl
.	.	2c\	.
=75	=75	=75	=75
0GG]	0G]	0dl	0g]
!!LO:LB:i:g=z
=76||	=76||	=76||	=76||
*>C	*>C	*>C	*>C
*clefF4	*clefGv2	*clefGv2	*clefG2
*k[b-]	*k[b-]	*k[b-]	*k[b-]
*M3/1	*M3/1	*M3/1	*M3/1
*met(O|)	*met(O|)	*met(O|)	*met(O|)
*MM378	*MM378	*MM378	*MM378
!!section: Kyrie II
!!!OMD: Kyrie II
0.G	0.r	0d	0.r
.	.	1d	.
=77	=77	=77	=77
1.C	0G	0g	0.r
2D\	.	.	.
1E	1G	1g	.
=78	=78	=78	=78
1F	0c	1f	1r
0C	.	0e	0g
.	1c	.	.
=79	=79	=79	=79
1G	1B-	1d	1g
1r	0A	2e\	0cc
.	.	1f#i	.
1r	.	.	.
.	.	4e\	.
.	.	4f#i\	.
=80	=80	=80	=80
0.GG	0.G	1.g	1.b-
.	.	4f\	4a/
.	.	4e\	4g/
.	.	2.d\	1b-
.	.	4e\	.
=81	=81	=81	=81
1D	0.r	4f\	0.a
.	.	4g\	.
.	.	2.a\	.
0D	.	.	.
.	.	4g\	.
.	.	4f#i\	.
.	.	4e\	.
.	.	1f#i	.
=82	=82	=82	=82
0GG	0.r	0g	1g
.	.	.	0d
1G	.	1d	.
=83	=83	=83	=83
1.B-	1r	1d	1G
.	0d	1G	1r
2c\	.	.	.
2.B-\	.	1r	[1G
4A\	.	.	.
=84	=84	=84	=84
0B-	0.G	1d	1G]
.	.	1d	0g
1B-	.	1d	.
=85	=85	=85	=85
1A	1r	1c	1a
0G	1d	0B-	1b-
.	1d	.	1g
=86	=86	=86	=86
1D	1d	0A	1a
2.F\	0c	.	2.a/
4E\	.	.	4g/
1C	.	[1G	1e
=87	=87	=87	=87
1GG	1B-	1G]	2d/
.	.	.	1g
0D	0A	1r	.
.	.	.	2f#i/
.	.	1r	2f#i/
.	.	.	4e/
.	.	.	4f#i/
=88	=88	=88	=88
0.GG	[0.G	0.r	0.g
=89	=89	=89	=89
[0.C	1G]	0.r	1r
.	1r	.	[0g
.	1r	.	.
=90	=90	=90	=90
0.C]	1c	0g	1g]
.	1.c	.	1.cc
.	.	1g	.
.	4B-\	.	4b-\
.	4c\	.	4cc\
=91	=91	=91	=91
0.r	1d	0f	1.a
.	0d	.	.
.	.	.	1b-
.	.	1f	.
.	.	.	2a/
=92	=92	=92	=92
1C	0.c	0g	0.cc
1.C	.	.	.
.	.	1g	.
4BB-/	.	.	.
4C/	.	.	.
=93	=93	=93	=93
1D	1.A	0.d	0.r
0D	.	.	.
.	1B-	.	.
.	2A/	.	.
=94	=94	=94	=94
0C	1.c	0g	1r
.	.	.	0c
.	4B-\	.	.
.	4A/	.	.
1E	1G	1g	.
=95	=95	=95	=95
0.D	0.A	0.f	1d
.	.	.	[0d
=96	=96	=96	=96
1GG	0.G	0.g	1d]
0C	.	.	2.c/
.	.	.	4d/
.	.	.	2e/
.	.	.	4d/
.	.	.	4e/
=97	=97	=97	=97
0BB-	0B-	0d	1.f
.	.	.	2d/
1GG	1B-	1g	1e
=98	=98	=98	=98
1FF	1A	0a	0f
1F	2.A/	.	.
.	4B-\	.	.
1C	1c	1g	1e
=99	=99	=99	=99
1D	0.A	1f	1.d
0AA	.	0e	.
.	.	.	4c#i/
.	.	.	4Bni/
.	.	.	1c#i
=100	=100	=100	=100
0BB-	1F	1d	0d
.	0D	1d	.
1GG	.	1d	1r
=101	=101	=101	=101
0GG	1D	1g	0d
.	0G	1g	.
1r	.	2.g\	1d
.	.	4f\	.
=102	=102	=102	=102
0GG	0.r	2d\	1g
.	.	2.B-\	.
.	.	.	2.g/
.	.	4c\	.
.	.	2d\	.
.	.	.	4f/
1GG	.	2.B-\	1d
.	.	4A/	.
=103	=103	=103	=103
0C	0G	0c	0e
1BB-	1G	1d	1d
=104	=104	=104	=104
1AA	0c	2r	2e/
.	.	2c\	1a
0AA	.	2.A/	.
.	.	.	4g/
.	.	4B-\	4f/
.	1c	1c	2e/
.	.	.	2f/
=105	=105	=105	=105
1GG	1B-	0.d	1.g
1D	0A	.	.
.	.	.	4f#i/
.	.	.	4g/
1D	.	.	2f#i/
.	.	.	2e/
=106	=106	=106	=106
0GG	0.G	2.B-\	1g
.	.	4c\	.
.	.	1.d	1r
1r	.	.	1g
.	.	4c\	.
.	.	4B-\	.
=107	=107	=107	=107
1D	0.r	2A/	2f/
.	.	2.F/	2.a/
1D	.	.	.
.	.	4E/	4g/
.	.	2D/	2f/
1C	.	2E/	1e
.	.	2F/	.
=108	=108	=108	=108
1BB-	0.r	1.G	1d
0AA	.	.	2r
.	.	2E/	2.c/
.	.	2F/	.
.	.	.	4B-/
.	.	4E/	4A/
.	.	4F/	4G/
=109	=109	=109	=109
2GG/	1r	2G/	1B-
1G	.	1B-	.
.	1d	.	2G/
2F\	.	4A/	2.d/
.	.	4G/	.
1D	1d	1A	.
.	.	.	4e/
.	.	.	2f/
=110	=110	=110	=110
0.E	0.G	0.r	2.g/
.	.	.	4f/
.	.	.	4e/
.	.	.	4d/
.	.	.	2e/
.	.	.	2.c#i/
.	.	.	4Bni/
=111	=111	=111	=111
0D	1r	1A	1d
.	1d	1F	1a
2.GG/	1d	2.G/	1g
4AA/	.	4F/	.
=112	=112	=112	=112
1BB-	1d	1D	1f
1.C	0c	1r	1.e
.	.	1G	.
2BB-/	.	.	4d/
.	.	.	4c/
=113	=113	=113	=113
1GG	1B-	2G/	2d/
.	.	1d	1g
0D	0A	.	.
.	.	4c\	2f#i/
.	.	4B-\	.
.	.	2.A/	2f#i/
.	.	.	4e/
.	.	4A/	4f#i/
=114	=114	=114	=114
0.GGl	0.Gl	2.B-\	0.gl
.	.	4c\	.
.	.	0dl	.
==	==	==	==
*-	*-	*-	*-
!!!RDF**kern: l=long note in original notation
!!!RDF**kern: i=editorial accidental
!!!ENC:	Complete Works (Melin)
!!!END:	2014/06/10/
!!!EED:	Jesse Rodin
!!!EEV:	2014/06/12/
!!!ONB:	Translated from MusicXML and edited on 2014/06/12/ by Craig Sapp
!!muse2ps: T^@{OPR}^u^@{ONM}{. }@{OTL}^C^@{COM}^i2I150v105,85,85,150c160
